X: 5
T: The Eel In The Sink
R: reel
M: 4/4
L: 1/8
K: Amix
|e2AB cdec|d2BG dG (3Bcd|e2AB cdef|gedB eA A2|
e2AB cdec|d2BG dG (3Bcd|e2AB cdef|gedg eA A2||
|a2ea aged|(3Bcd ef g2fg|a2ea agab|gedB eA A2|
a2ea aged|(3Bcd ef g2ga|afge fdef|gfgd BA A2||


Tune 1446	Setting 1446

